src/shared/icon/chevron-right.svg

<?xml version="1.0" encoding="UTF-8"?>
<svg width="10px" height="16px" viewBox="0 0 10 16" version="1.1" xmlns="http://www.w3.org/2000/svg" xmlns:xlink="http://www.w3.org/1999/xlink">
    <!-- Generator: Sketch 63.1 (92452) - https://sketch.com -->
    <title>shape</title>
    <desc>Created with Sketch.</desc>
    <defs>
        <path d="M0.73548982,0.688476604 C1.13602755,0.276494933 1.76628428,0.244804036 2.2021634,0.593403911 L2.30683822,0.688476604 L8.7883197,7.35514327 C9.18885744,7.76712494 9.21966803,8.415389 8.88075149,8.86372181 L8.7883197,8.97138734 L2.30683822,15.638054 C1.87292234,16.0843675 1.1694057,16.0843675 0.73548982,15.638054 C0.334952085,15.2260723 0.30414149,14.5778083 0.643058035,14.1294755 L0.73548982,14.0218099 L6.43079365,8.16326531 L0.73548982,2.30472068 C0.334952085,1.892739 0.30414149,1.24447494 0.643058035,0.796142133 L0.73548982,0.688476604 Z" id="path-1"></path>
    </defs>
    <g id="Symbols" stroke="none" stroke-width="1" fill="none" fill-rule="evenodd">
        <g id="chevron-right">
            <g>
                <mask id="mask-2" fill="white">
                    <use xlink:href="#path-1"></use>
                </mask>
                <use id="shape" fill="#0071BC" fill-rule="nonzero" xlink:href="#path-1"></use>
            </g>
        </g>
    </g>
</svg>

<svg xmlns="http://www.w3.org/2000/svg" xmlns:xlink="http://www.w3.org/1999/xlink" width="10" height="16">
  <defs>
    <path d="M.735.688A1.09 1.09 0 0 1 2.202.593l.105.095 6.48 6.667a1.17 1.17 0 0 1 .092 1.509l-.092.108-6.48 6.667a1.09 1.09 0 0 1-1.571 0 1.17 1.17 0 0 1-.092-1.509l.092-.108 5.695-5.86-5.695-5.86A1.17 1.17 0 0 1 .643.796L.735.688z" id="A"/>
  </defs>
  <g fill-rule="evenodd">
    <mask id="B" fill="#fff"><use xlink:href="#A"/></mask>
    <use fill="#0071bc" fill-rule="nonzero" xlink:href="#A"/>
  <g mask="url(#B)" fill="#0050d8"><path d="M-3.333-.816h17.778v19.43H-3.333z"/></g>
  </g>
</svg>
